!!!!SEGMENT: pl-wtm--r-1461--001_stefani-jozef--wszechstronne-cwiczenia-glosowe-do-re-mi.krn
!!!cenid: 18xx:2178
!!!COM: Stefani, Józef
!!!COM-rismID: pe30024097
!!!CDT: 1800/04/16-1876/03/19
!!!CNT: Polish
!!!GTL: Wszechstronne ćwiczenia głosowe
!!!OTL: Do re mi
!!!PDT:
!!!AGN: Secular
!!!SMS-siglum: PL-Wtm
!!!SMS-shelfmark: R 1461
!!!SMS-shelfwork: 001 G
!!!SMS-variant:
!!!SMS-altvar:
!!!NIFC-rismSourceID: 1001120710
!!!NIFC-islandoraID: pl-wtm:25869
!!!URL-pdf-islandora: https://repozytorium.nifc.pl/islandora/object/pl-wtm%3A25869/datastream/PDF/view
!!!URL-scan: https://polish.musicsources.pl/pl/lokalizacje/galeria/rekopisy/6276 @EN{Scan on Polish Music Herritage in Open Access Website} @PL{Skany w portalu Dziedzictwo Muzyki Polskiej w otwartym dostępie}
!!!ONB-nifc: UWAGA: skan 0003, s. 2, pierwsze 2 systemy
!!!AIN: 1 empty 1 forte 1 tenor
!!!key:
**kern	**kern	**kern	**text	**text
*part3	*part2	*part1	*part1	*part1
*staff3	*staff2	*staff1	*staff1	*staff1
*Iempty	*Iforte	*Itenor	*	*
*	*I"Fortepian	*I"Sopran / Tenor	*	*
*	*I'[pf]	*I'[S / T]	*	*
*clefF4	*clefG2	*clefG2	*	*
*k[]	*k[]	*k[]	*	*
*C:	*C:	*C:	*	*
*M4/4	*M4/4	*M4/4	*	*
=1	=1	=1	=1	=1
*all\right	*all\right	*all\right	*	*
4C\	4c 4G< 4E</	4c/	do	c.
4BB\	4d 4G</	4d/	re	d
4C\	4e 4c 4G</	4e/	mi	e
4AA\	4f 4c 4F</	4f/	fa	f
=2	=2	=2	=2	=2
4E\	4g 4c 4G</	4g/	sol	g
4F\	4a 4f 4c/	4a/	la	a
4D\	4b 4g 4f/	4b\	si	h
4C\	4cc 4g 4e/	4cc\	do	c
=3	=3	=3	=3	=3
4BB/	4dd 4g 4d/	4dd\	re	d
4BB-X/	4ee 4cc 4g/	4ee\	mi	e
4AA/	4ff 4cc 4f/	4ff\	fa	f
4E\	4gg 4cc 4g\	4gg\	sol	g
=4	=4	=4	=4	=4
1F	1aa 1ff 1cc	1aa	la	a
!!LO:LB:g=original
=5	=5	=5	=5	=5
4E\	4gg 4cc 4g\	4gg\	sol	g
4D\	4ff 4b 4g\	4ff\	fa	f
4C/	4ee 4cc 4g\	4ee\	mi	e
4BB/	4dd 4g\	4dd\	re	d
=6	=6	=6	=6	=6
4AA/	4cc 4f#X 4d/	4cc\	do	c
4GG/	4b 4g 4d/	4b\	si	h
4D 4DD/	4a 4f#X 4d 4c/	4a/	la	a
4G 4GG\	4g 4d 4B/	4g/	sol	g
=7	=7	=7	=7	=7
4BB 4BBB\	4fn 4d 4G</	4f/	fa	f
4C 4CC\	4e 4c 4G</	4e/	mi	e
*2\right	*2\right	*	*	*
2F 2FF\	2d 2B 2G</	2d/	re	d
=8	=8	=8	=8	=8
1C 1E	1c 1G<	1c	do	c.
==	==	==	==	==
*-	*-	*-	*-	*-
!!!system-decoration: s1{(s2,s3)}
!!!RDF**kern: < = below
!!!ENC: Marta Lawrence
!!!END: 2021-06-03
!!!ENC: Andrzej Kubiczek
!!!END: 2021-05-16
